X:1
T:Fuguetta
T:Johann Pachelbel
%%score ( 1 2 )
L:1/8
M:none
K:C
V:1 treble-8 nm="Classical Guitar" snm="Guit."
V:2 treble-8 
V:1
 cdef gdgf | e4 d4 | z4 Bfed | e8 | GABc dAdc | B4 A4 | Ggde f4 | e4 d4 | c2 cB ABcd | edcd BAGA | %10
 ^F2 z2 G2 G=F | GABc dAdc | B4 cGcB | A4 B4 | cdef gdgf | edcd B4 | cBcd B2 Bc | A2 d4 c2 | %18
 fefg e2 e^f | d2 g2 c=f e2 | eEFG Acde | f2 e2 d2 c2 | B2 cd d3 c | c8 |] %24
V:2
 x8 | CDEF GDGF | EGcA D2 G2 | CGAB cG C2 | B,4 ^F,4 | G,A,B,C DA,DC | B,4 A,DA,B, | CDEF GDGF | %8
 E G3 F2 ED | C4 G,A,B,C | DA,DC B, G,3 | E4 ^F4 | GDGF E4 | FCFE DGFG | E4 B,4 | CDEF GDGF | %16
 E4 DA G2 | FEFG EDEF | D4 Cd c2 | BABc A2 Bd | cCDE F2 E2 | DdGA BGEA | DGEF G2 G,2 | C8 |] %24

